symbolic/22x22/apps/insomnia.svg

<svg xmlns="http://www.w3.org/2000/svg" width="22" height="22" version="1.1">
 <path style="opacity:0.2" d="m 11,1.5 a 10,10 0 0 0 -10,10 10,10 0 0 0 10,10 10,10 0 0 0 10,-10 10,10 0 0 0 -10,-10 z"/>
 <path style="fill:#e4e4e4" d="M 11,1 A 10,10 0 0 0 1,11 10,10 0 0 0 11,21 10,10 0 0 0 21,11 10,10 0 0 0 11,1 Z"/>
 <path style="opacity:0.2;fill:#ffffff" d="M 11,1 A 10,10 0 0 0 1.0705,9.926 10,9.5 0 0 1 11,1.5 10,9.5 0 0 1 20.961,10.2235 10,10 0 0 0 11,1 Z m 9.961,9.2235 A 10,10 0 0 1 21,11 10,9.5 0 0 0 20.961,10.2235 Z M 1.0705,9.926 A 10,9.5 0 0 0 1.0461,10.122 10,10 0 0 1 1.0705,9.926 Z M 1.0461,10.122 A 10,10 0 0 0 1.0002,11 10,9.5 0 0 1 1.0461,10.122 Z"/>
 <path style="opacity:0.1" d="M 11,3.5 A 8,8 0 0 0 9.496094,3.6484375 4.5,4.5 0 0 1 11,7 4.5,4.5 0 0 1 6.5,11.5 4.5,4.5 0 0 1 3.1464844,9.994141 8,8 0 0 0 3,11.5 a 8,8 0 0 0 8,8 8,8 0 0 0 8,-8 8,8 0 0 0 -8,-8 z"/>
 <path style="fill:#6153c1" d="M 11,3 A 8,8 0 0 0 9.496094,3.1484375 4.5,4.5 0 0 1 11,6.5 4.5,4.5 0 0 1 6.5,11 4.5,4.5 0 0 1 3.1464844,9.494141 8,8 0 0 0 3,11 a 8,8 0 0 0 8,8 8,8 0 0 0 8,-8 8,8 0 0 0 -8,-8 z"/>
</svg>

<svg xmlns="http://www.w3.org/2000/svg" width="22" height="22"><path style="opacity:.2" d="M11 1.5a10 10 0 0 0-10 10 10 10 0 0 0 10 10 10 10 0 0 0 10-10 10 10 0 0 0-10-10z"/><path style="fill:#e4e4e4" d="M11 1A10 10 0 0 0 1 11a10 10 0 0 0 10 10 10 10 0 0 0 10-10A10 10 0 0 0 11 1z"/><path style="opacity:.2;fill:#fff" d="M11 1a10 10 0 0 0-9.93 8.926A10 9.5 0 0 1 11 1.5a10 9.5 0 0 1 9.961 8.723A10 10 0 0 0 11 1zm9.961 9.223A10 10 0 0 1 21 11a10 9.5 0 0 0-.039-.777zm-19.89-.297a10 9.5 0 0 0-.025.196 10 10 0 0 1 .024-.196zm-.025.196A10 10 0 0 0 1 11a10 9.5 0 0 1 .046-.878z"/><path style="opacity:.1" d="M11 3.5a8 8 0 0 0-1.504.148A4.5 4.5 0 0 1 11 7a4.5 4.5 0 0 1-4.5 4.5 4.5 4.5 0 0 1-3.354-1.506A8 8 0 0 0 3 11.5a8 8 0 0 0 8 8 8 8 0 0 0 8-8 8 8 0 0 0-8-8z"/><path style="fill:#6153c1" d="M11 3a8 8 0 0 0-1.504.148A4.5 4.5 0 0 1 11 6.5 4.5 4.5 0 0 1 6.5 11a4.5 4.5 0 0 1-3.354-1.506A8 8 0 0 0 3 11a8 8 0 0 0 8 8 8 8 0 0 0 8-8 8 8 0 0 0-8-8z"/></svg>
